!!!COM:	Josquin des Prez
!!!CDT:	~1450-1521/08/27
!!!COA2: La Rue, Pierre de
!!!CDT2: ~1452///-1518/11/20/
!!!OPR:	Missa De beata virgine
!!!ONM:	4
!!!OTL:	Sanctus
!!!AGN:	Mass; Sanctus
!!!SCT:	NJE 3.3
!!!SCA:	New Josquin Edition 3.3
!!!voices:	5
!!!voices-OPR:	4-5
**kern	**kern	**kern	**kern	**kern
*Ivox	*Ivox	*Ivox	*Ivox	*Ivox
*I"Bassus	*I"Tenor2	*I"Altus	*I"Tenor1	*I"Superius
*I'B	*I'T2	*I'A	*I'T1	*I'S
*staff5	*staff4	*staff3	*staff2	*staff1
*>[A,B,C,D,C]	*>[A,B,C,D,C]	*>[A,B,C,D,C]	*>[A,B,C,D,C]	*>[A,B,C,D,C]
*clefF4	*clefGv2	*clefGv2	*clefG2	*clefG2
*k[b-]	*k[b-]	*k[b-]	*k[]	*k[b-]
*>A	*>A	*>A	*>A	*>A
*M3/1	*M3/1	*M3/1	*M3/1	*M3/1
*met(O)	*met(O)	*met(O)	*met(O)	*met(O)
=1-	=1-	=1-	=1-	=1-
!	!	!	!LO:TX:Z=10:X=-50:t=Canon&colon; Vous jeunerez les quatre temps. [T2-->T1 canon at the upper fifth.]	!
0c	0c	0.r	0.r	0cc
2.F\	[1f	.	.	1cc
4G\	.	.	.	.
=2	=2	=2	=2	=2
4A\	2f\]	0.r	0.r	1cc
4B-\	.	.	.	.
1c	2e\	.	.	.
.	0d	.	.	1.ff
4B-\	.	.	.	.
4A\	.	.	.	.
1B-	.	.	.	.
.	.	.	.	4ee\
.	.	.	.	4dd\
=3	=3	=3	=3	=3
1c	1.c	0.r	0.r	2.ee\
.	.	.	.	4dd\
1r	.	.	.	2ee\
.	2A/	.	.	2ff\
1r	1B-	.	.	2dd\
.	.	.	.	2ff\
=4	=4	=4	=4	=4
0.r	2c\	0.r	0.r	2ee\
.	2d\	.	.	2.dd\
.	2e\	.	.	.
.	.	.	.	4cc\
.	2f\	.	.	1cc
.	1d	.	.	.
.	.	.	.	2bni\
=5	=5	=5	=5	=5
0.r	0.c	0c	0g	0.cc
.	.	1c	[1cc	.
=6	=6	=6	=6	=6
0.r	0.r	1.f	2cc\]	1r
.	.	.	2b\	.
.	.	.	0a	1r
.	.	2e\	.	.
.	.	2d\	.	2r
.	.	2c\	.	2cc\
=7	=7	=7	=7	=7
0.r	0.r	2B-\	1.g	2dd\
.	.	2.c\	.	2.ee\
.	.	4B-\	.	4dd\
.	.	2c\	2e/	2gg\
.	.	1d	1f	2.ff\
.	.	.	.	8ee\L
.	.	.	.	8dd\J
=8	=8	=8	=8	=8
0.r	0.r	1c	2g/	1ee
.	.	.	2a/	.
.	.	1r	2b\	2dd\
.	.	.	2cc\	1gg
.	.	1d	1a	.
.	.	.	.	2ff#i\
=9	=9	=9	=9	=9
0c	0c	2e\	0.g	0gg
.	.	2c\	.	.
.	.	0cc	.	.
1c	1e	.	.	1gg
=10	=10	=10	=10	=10
1d	1f	1a	0.r	1ff
0G	0g	0b-	.	1.dd
.	.	.	.	2ee\
=11	=11	=11	=11	=11
1d	1.f	1a	0.r	1ff
1B-	.	1b-	.	2dd\
.	2d\	.	.	2ff\
1c	1e	1g	.	2ee\
.	.	.	.	[2cc\
=12	=12	=12	=12	=12
2A\	1f	2a\	0.r	2cc\]
2.B-\	.	4d\	.	2.dd\
.	.	4e\	.	.
.	0d	4f\	.	.
4A\	.	4g\	.	4cc\
2F\	.	2a\	.	1cc
1G	.	1g	.	.
.	.	.	.	2bni\
=13	=13	=13	=13	=13
0C	0c	0e	0g	0cc
2.G\	1r	1d	1b	1dd
4F\	.	.	.	.
=14	=14	=14	=14	=14
1E	0.r	2r	1cc	1ee
.	.	2g\	.	.
0D	.	2f\	0dd	1ff
.	.	2d\	.	.
.	.	1f	.	1dd
=15	=15	=15	=15	=15
0A	0.r	1.e	1.cc	1ee
.	.	.	.	1cc
.	.	2c\	2a/	.
1G	.	[1g	1b	1dd
=16	=16	=16	=16	=16
1C	0c	1g]	1cc	1ee
0F	.	2.f\	0a	2.ff\
.	.	4g\	.	4ee\
.	1f	4a\	.	2.cc\
.	.	4b-\	.	.
.	.	[2cc\	.	.
.	.	.	.	4dd\
=17	=17	=17	=17	=17
1C	1e	2cc\]	0g	4ee\
.	.	.	.	4ff\
.	.	2g\	.	2.gg\
2.G\	0d	2.b-\	.	.
.	.	.	.	4ff\
.	.	.	.	2.dd\
4F\	.	4a\	.	.
2.D\	.	2.f\	1r	.
.	.	.	.	4ee\
.	.	.	.	[2ff\
4E\	.	4g\	.	.
=18	=18	=18	=18	=18
2.F\	0c	1a	0.r	4ff\]
.	.	.	.	4ee\
.	.	.	.	2.cc\
4E\	.	.	.	.
1C	.	0g	.	.
.	.	.	.	4b-\
.	.	.	.	2cc\
1G	1B-	.	.	2dd\
.	.	.	.	[2gg\
=19	=19	=19	=19	=19
1E	1c	2r	0.r	4gg\]
.	.	.	.	4ff\
.	.	2g\	.	2ee\
1F	0d	2f\	.	4dd\
.	.	.	.	4cc\
.	.	2a\	.	1cc
1G	.	1g	.	.
.	.	.	.	2bni\
=20	=20	=20	=20	=20
0.C	0c	1e	0g	2.cc\
.	.	.	.	4dd\
.	.	2r	.	4ee\
.	.	.	.	4ff\
.	.	2e\	.	2gg\
.	1r	2c\	1cc	2ee\
.	.	2e\	.	[2gg\
=21	=21	=21	=21	=21
1G	0.r	2d\	1b-i	4gg\]
.	.	.	.	4ff\
.	.	2B-\	.	2dd\
1r	.	2c\	0a	2ee\
.	.	2.d\	.	2.ff\
1r	.	.	.	.
.	.	4c\	.	4ee\
.	.	2A/	.	2cc\
=22	=22	=22	=22	=22
0.r	0.r	2B-\	0g	2dd\
.	.	2.c\	.	2.ee\
.	.	4B-\	.	4dd\
.	.	2c\	.	4cc\
.	.	.	.	4b-\
.	.	1d	1f	1a
=23	=23	=23	=23	=23
1r	0c	0e	1g	1g
1r	.	.	0a	1cc
1F	1A	1f	.	2r
.	.	.	.	2cc\
=24	=24	=24	=24	=24
1G	1B-	1d	0g	2.b-\
.	.	.	.	8a/L
.	.	.	.	8g/J
1C	2.c\	1e	.	2a/
.	.	.	.	1g
.	4B-\	.	.	.
1D	1A	1d	1r	.
.	.	.	.	2f#i/
=25	=25	=25	=25	=25
2r	2G/	2.B-\	0.r	1g
2G\	2B-\	.	.	.
.	.	4G/	.	.
2F\	2c\	2A/	.	1r
2D\	2d\	2B-\	.	.
1E-i	2B-\	2.G/	.	1gg
.	2c\	.	.	.
.	.	4A/	.	.
=26	=26	=26	=26	=26
2.D\	2d\	4B-\	0.r	2.ff\
.	.	4A/	.	.
.	2.f\	1a	.	.
4C/	.	.	.	4ee\
2D\	.	.	.	4dd\
.	4e\	.	.	4cc\
2E\	2c\	2g\	.	1cc
2F\	1d	2f\	.	.
2G\	.	2d\	.	2bni\
=27	=27	=27	=27	=27
0C	0.c	0e	0g	2cc\
.	.	.	.	2.gg\
.	.	.	.	4ff\
.	.	.	.	2.ee\
1C	.	[1c	1e	.
.	.	.	.	4dd\
.	.	.	.	4cc\
.	.	.	.	4b-\
=28	=28	=28	=28	=28
1F	1r	2c\]	1f	1a
.	.	2d\	.	.
1E	1r	2.e\	2.g/	0g
.	.	4f\	4f/	.
1C	1c	2g\	1e	.
.	.	2c\	.	.
=29	=29	=29	=29	=29
2G\	1d	2B-\	2d/	0.r
2D\	.	2.d\	2f/	.
2G\	2B-\	.	2g/	.
.	.	4c\	.	.
2F\	2c\	2A/	2a/	.
1B-	1d	2d\	2f/	.
.	.	2G/	2g/	.
=30	=30	=30	=30	=30
2.A\	[0.cl	2r	2a/	1.cc
.	.	2.c\	2.cc\	.
4G\	.	.	.	.
2F\	.	.	.	.
.	.	4d\	4b\	.
2E\	.	2e\	2g/	2cc\
1F	.	2.A/	1a	2.cc\
.	.	4B-\	.	4dd\
=31	=31	=31	=31	=31
0.C	0.c_	4c\	0.g	4ee\
.	.	4d\	.	4ff\
.	.	2.e\	.	2.gg\
.	.	4f\	.	4ff\
.	.	2g\	.	2.ee\
.	.	2c\	.	.
.	.	.	.	4dd\
.	.	2e\	.	4cc\
.	.	.	.	4b-\
=32	=32	=32	=32	=32
2F\	0.c_	2f\	1r	2a/
2E\	.	2g\	.	2g/
1F	.	1a	1r	2.cc\
.	.	.	.	4dd\
1C	.	2g\	1g	2ee\
.	.	2e\	.	[2cc\
=33	=33	=33	=33	=33
1.F	0.c_	2f\	1a	4cc\]
.	.	.	.	4b-\
.	.	2.c\	.	4a/
.	.	.	.	4g/
.	.	.	2f/	2a/
.	.	4d\	.	.
2E\	.	2e\	2g/	2g/
1F	.	2.A/	1a	2.cc\
.	.	4B-\	.	4dd\
=34	=34	=34	=34	=34
0.Cl	0.c]	0.cl	0.gl	0.eel
!!LO:LB:i:g=z
=35||	=35||	=35||	=35||	=35||
*>B	*>B	*>B	*>B	*>B
!!section: Pleni
!!!OMD: Pleni
*M2/1	*M2/1	*M2/1	*M2/1	*M2/1
*met(C|)	*met(C|)	*met(C|)	*met(C|)	*met(C|)
!	!	!	!LO:TX:Z=10:X=-50:t=Canon&colon; Vous jeunerez les quatre temps. [T2-->T1 canon at the upper fifth.]	!
0r	0r	0r	0r	0cc
=36	=36	=36	=36	=36
0r	0r	0r	0r	1ee
.	.	.	.	1ff
=37	=37	=37	=37	=37
0r	0r	0c	0r	1.gg
.	.	.	.	4ff\
.	.	.	.	4ee\
=38	=38	=38	=38	=38
0r	0r	1e	0r	1gg
.	.	1f	.	2cc\
.	.	.	.	2ff\
=39	=39	=39	=39	=39
0r	0r	0g	0r	2ee\
.	.	.	.	1dd
.	.	.	.	4cc\
.	.	.	.	4b-\
=40	=40	=40	=40	=40
0F	0r	[0f	0r	1.a
.	.	.	.	2b-\
=41	=41	=41	=41	=41
1A	0r	1.f]	0r	1cc
1B-	.	.	.	1dd
.	.	4e\	.	.
.	.	4d\	.	.
=42	=42	=42	=42	=42
0c	0r	1e	0r	0g
.	.	[1g	.	.
=43	=43	=43	=43	=43
[0B-	0r	2g\]	0r	0r
.	.	2f\	.	.
.	.	2d\	.	.
.	.	[2f\	.	.
=44	=44	=44	=44	=44
1.B-]	0r	4f\]	0r	0r
.	.	4e\	.	.
.	.	4d\	.	.
.	.	4c\	.	.
.	.	1d	.	.
4A\	.	.	.	.
4G\	.	.	.	.
=45	=45	=45	=45	=45
1A	0r	2r	0r	0r
.	.	2.c\	.	.
[1c	.	.	.	.
.	.	4B-\	.	.
.	.	4A/	.	.
.	.	4G/	.	.
=46	=46	=46	=46	=46
2c\]	0r	2A/	0r	0r
2B-\	.	2G/	.	.
2G\	.	2.d\	.	.
[2B-\	.	.	.	.
.	.	4c\	.	.
=47	=47	=47	=47	=47
2B-\]	0r	4d\	0r	0r
.	.	4e\	.	.
2A\	.	1f	.	.
2F\	.	.	.	.
[2A\	.	4e\	.	.
.	.	4d\	.	.
=48	=48	=48	=48	=48
4A\]	0r	2c\	0r	1r
4B-\	.	.	.	.
2.c\	.	2e\	.	.
.	.	1d	.	1dd
4Bni\	.	.	.	.
4Bni\	.	.	.	.
4A\	.	.	.	.
=49	=49	=49	=49	=49
1c	0c	[0c	0r	2ee\
.	.	.	.	2.gg\
2r	.	.	.	.
.	.	.	.	4ff\
[2c\	.	.	.	2ee\
=50	=50	=50	=50	=50
4c\]	1e	0c]	0r	4ee\
4B-\	.	.	.	4dd\
4A\	.	.	.	1cc
4G\	.	.	.	.
1A	1f	.	.	.
.	.	.	.	4b-\
.	.	.	.	4a/
=51	=51	=51	=51	=51
1.G	0g	1d	0r	2.b-\
.	.	.	.	4cc\
.	.	1G	.	2dd\
2C/	.	.	.	2ee\
=52	=52	=52	=52	=52
2.F\	0f	1.A	0r	2ff\
.	.	.	.	2cc\
4E\	.	.	.	.
1D	.	.	.	1dd
.	.	2B-\	.	.
=53	=53	=53	=53	=53
0C	1e	2.c\	0g	2ee\
.	.	.	.	1gg
.	.	4d\	.	.
.	[1g	2.e\	.	.
.	.	.	.	4ff\
.	.	4f\	.	4ee\
=54	=54	=54	=54	=54
1r	2g\]	0g	1b	1dd
.	2f\	.	.	.
2r	1e	.	1cc	2r
2C/	.	.	.	2cc\
=55	=55	=55	=55	=55
1G	1.d	0r	0dd	2b-\
.	.	.	.	1dd
1D	.	.	.	.
.	[2f\	.	.	4cc\
.	.	.	.	4b-\
=56	=56	=56	=56	=56
0F	2f\]	0r	0cc	2.a/
.	4e\	.	.	.
.	4d\	.	.	4g/
.	1c	.	.	1a
=57	=57	=57	=57	=57
[0G	0r	1r	1b-i	1.g
.	.	[1G	[1dd	.
.	.	.	.	2a/
=58	=58	=58	=58	=58
0G]	1r	2G/]	2dd\]	2b-\
.	.	2A/	2cc\	2cc\
.	1d	2.B-\	1b-i	[1dd
.	.	4c\	.	.
=59	=59	=59	=59	=59
2.D\	1.f	1.d	1.a	2dd\]
.	.	.	.	2cc\
4E\	.	.	.	.
4F\	.	.	.	2.a/
4G\	.	.	.	.
[2A\	4e\	2c\	[2cc\	.
.	4d\	.	.	4b-\
=60	=60	=60	=60	=60
4A\]	1.c	2A/	2cc\]	2.cc\
4B-\	.	.	.	.
2.c\	.	2.e\	4b-i\	.
.	.	.	4a/	4dd\
.	.	.	1g	2ee\
4B-\	.	4f\	.	.
2G\	2B-\	2g\	.	[2dd\
=61	=61	=61	=61	=61
1A	1c	2e\	0r	4dd\]
.	.	.	.	4cc\
.	.	2f\	.	2cc\
1G	2d\	[1g	.	2b-\
.	2B-\	.	.	[2dd\
=62	=62	=62	=62	=62
2E\	1c	2g\]	1r	2dd\]
2F\	.	2a\	.	2cc\
1D	1d	1f	1a	1ff
=63	=63	=63	=63	=63
0C	1e	0g	1.cc	2r
.	.	.	.	1ee
.	[1c	.	.	.
.	.	.	4b-i\	[2gg\
.	.	.	4a/	.
=64	=64	=64	=64	=64
0r	2c\]	0r	1.g	4gg\]
.	.	.	.	4ff\
.	2B-\	.	.	2dd\
.	2c\	.	.	2ee\
.	2d\	.	2f/	2ff\
=65	=65	=65	=65	=65
0r	2B-\	0r	1g	2dd\
.	1c	.	.	1ee
.	.	.	2a/	.
.	2d\	.	2f/	2ff\
=66	=66	=66	=66	=66
0r	2B-\	2r	1g	2dd\
.	2c\	1g	.	2ee\
.	1A	.	1a	1cc
.	.	2f\	.	.
=67	=67	=67	=67	=67
0r	0G	2.g\	1b-i	1r
.	.	4a\	.	.
.	.	[1b-	[1g	1dd
=68	=68	=68	=68	=68
0r	0r	2b-\]	2g/]	1.dd
.	.	2a\	2f/	.
.	.	2b-\	2g/	.
.	.	2cc\	2a/	2cc\
=69	=69	=69	=69	=69
0r	0r	2a\	2f/	1dd
.	.	1b-	1g	.
.	.	.	.	2ee\
.	.	2cc\	2a/	[2ff\
=70	=70	=70	=70	=70
2r	0r	2a\	2f/	4ff\]
.	.	.	.	4ee\
2G\	.	2b-\	2g/	1dd
1A	.	4cc\	1e	.
.	.	4b-\	.	.
.	.	4a\	.	2cc#i\
.	.	4g\	.	.
=71	=71	=71	=71	=71
1.B-	1r	1f	0d	[0dd
.	1G	1b-	.	.
4A\	.	.	.	.
4G\	.	.	.	.
=72	=72	=72	=72	=72
2F\	1A	1a	0r	0dd]
2D\	.	.	.	.
1G	[1B-	1d	.	.
=73	=73	=73	=73	=73
2r	2B-\]	2r	0r	1r
2G\	4A/	2b-\	.	.
.	4G/	.	.	.
2F\	2A/	2a\	.	1dd
2G\	2B-\	[2g\	.	.
=74	=74	=74	=74	=74
1E	1c	4g\]	0r	1ee
.	.	4e\	.	.
.	.	2g\	.	.
2D\	1d	2f\	.	2.ff\
[2B-\	.	[2d\	.	.
.	.	.	.	4ee\
=75	=75	=75	=75	=75
2B-\]	2B-\	4d\]	1r	4dd\
.	.	4e\	.	4cc\
2A\	2c\	2f\	.	1cc
1G	1d	1g	1d	.
.	.	.	.	2bni\
=76	=76	=76	=76	=76
1C	[0cl	2r	1e	[0ccl
.	.	2g\	.	.
2.F\	.	2.a\	[1f	.
4G\	.	4b-\	.	.
=77	=77	=77	=77	=77
2.A\	0c_	2.cc\	2f/]	0cc_
.	.	.	4e/	.
4B-\	.	4b-\	4d/	.
2c\	.	2g\	2e/	.
2F\	.	2a\	2f/	.
=78	=78	=78	=78	=78
2.c\	0c_	2e\	1g	0cc_
.	.	2c\	.	.
4B-\	.	.	.	.
4A\	.	2.cc\	1a	.
4G\	.	.	.	.
[2F\	.	.	.	.
.	.	4b-\	.	.
=79	=79	=79	=79	=79
2F\]	0c_	2a\	2f/	0cc_
2E\	.	2g\	2g/	.
1F	.	1f	1a	.
=80	=80	=80	=80	=80
0Cl	0c]	0el	0gl	0cc]
!!LO:LB:i:g=z
=81||	=81||	=81||	=81||	=81||
*>C	*>C	*>C	*>C	*>C
!!section: Osanna
!!!OMD: Osanna
*M3/1	*M3/1	*M3/1	*M3/1	*M3/1
*met(C|3)	*met(C|3)	*met(C|3)	*met(C|3)	*met(C|3)
!	!	!	!LO:TX:Z=10:X=-50:t=Canon&colon; Vous jeunerez les quatre temps. [T2-->T1 canon at the upper fifth.]	!
0.r	0c	1g	0.r	0.r
.	.	1e	.	.
.	1A	1f	.	.
=82	=82	=82	=82	=82
1.G	1B-	1d	0.r	0.r
.	1.G	0g	.	.
2A\	.	.	.	.
2B-\	.	.	.	.
2c\	2A/	.	.	.
=83	=83	=83	=83	=83
1d	2B-\	0f	0.r	0.r
.	2c\	.	.	.
1B-	1.d	.	.	.
1c	.	1e	.	.
.	2c\	.	.	.
=84	=84	=84	=84	=84
1A	0c	1c	0.r	1r
0G	.	0d	.	1r
.	1Bni	.	.	1dd
=85	=85	=85	=85	=85
0.C	0.c	0.c	0g	1.ee
.	.	.	.	2ff\
.	.	.	1e	1gg
=86	=86	=86	=86	=86
0.r	0.r	0.r	1f	1cc
.	.	.	1.d	1.ff
.	.	.	2e/	2ee\
=87	=87	=87	=87	=87
0.r	0.r	0.r	2f/	1dd
.	.	.	2g/	.
.	.	.	1.a	0cc
.	.	.	2g/	.
=88	=88	=88	=88	=88
0.r	1r	0.r	0g	1b-
.	1r	.	.	0a
.	1d	.	1f#i	.
=89	=89	=89	=89	=89
1.c	1.e	1r	0.g	1g
.	.	1r	.	1.cc
2B-\	2d\	.	.	.
1A	2e\	1c	.	.
.	2f\	.	.	2a/
=90	=90	=90	=90	=90
1.G	0g	1e	0.r	2.b-\
.	.	.	.	4cc\
.	.	1.d	.	1.dd
2F\	.	.	.	.
1D	1f	.	.	.
.	.	2e\	.	2cc\
=91	=91	=91	=91	=91
1E	1e	1g	0.r	0cc
1F	0d	1f	.	.
1G	.	1d	.	1bni
=92	=92	=92	=92	=92
1C	0c	2.e\	1r	0.cc
.	.	4d\	.	.
1E	.	2.c\	1r	.
.	.	4B-\	.	.
1F	1r	1A	1a	.
=93	=93	=93	=93	=93
0.G	0.r	1G	1.b	1r
.	.	1.g	.	1r
.	.	.	2a/	.
.	.	.	2b\	1gg
.	.	2f\	2cc\	.
=94	=94	=94	=94	=94
0.r	0.r	1.d	0dd	1.ff
.	.	2c\	.	2dd\
.	.	1A	1cc	2.ee\
.	.	.	.	4ff\
=95	=95	=95	=95	=95
0.r	1r	1G	1b	0gg
.	1r	0d	0a	.
.	1d	.	.	1ff
=96	=96	=96	=96	=96
0.r	1e	1r	0g	1gg
.	1c	1g	.	1ee
.	1d	1f	1r	1ff
=97	=97	=97	=97	=97
1G	1B-	1g	0.r	1dd
1A	1c	1e	.	0cc
1F	1A	1f	.	.
=98	=98	=98	=98	=98
1G	1B-	1d	0.r	0.r
1.C	1.c	1.e	.	.
2D\	2B-\	2f\	.	.
=99	=99	=99	=99	=99
1E	1G	0g	1r	0.r
0D	0A	.	1r	.
.	.	1f	1a	.
=100	=100	=100	=100	=100
0.r	0G	1g	1b	1dd
.	.	1e	1g	1ee
.	1r	1f	1a	1cc
=101	=101	=101	=101	=101
0.r	0.r	1d	1f	1dd
.	.	1G	1g	1b-
.	.	1g	1e	1cc
=102	=102	=102	=102	=102
0.r	0.r	1a	1f	1dd
.	.	1.b-	1.g	1.ee
.	.	2a\	2f/	2dd\
=103	=103	=103	=103	=103
1r	0.r	1f	1d	0dd
1r	.	1g	0e	.
1A	.	1a	.	1cc#i
=104	=104	=104	=104	=104
1B-	1d	1f	0d	0dd
1G	1B-	1g	.	.
1A	1c	1e	1r	1r
=105	=105	=105	=105	=105
1.B-	1B-	1d	0.r	0.r
.	1d	1f	.	.
2A\	.	.	.	.
1G	1e	1g	.	.
=106	=106	=106	=106	=106
1F	1f	1a	0.r	0.r
0G	1d	1b-	.	.
.	1e	1g	.	.
=107	=107	=107	=107	=107
0F	0.r	1a	0.r	1cc
.	.	1f	.	1dd
1r	.	1g	.	1ee
=108	=108	=108	=108	=108
0.r	0.r	1f	1a	0ff
.	.	1a	1f	.
.	.	1b-	1g	1r
=109	=109	=109	=109	=109
0F	1.f	1cc	1f	0cc
.	.	1.f	1a	.
.	2e\	.	.	.
1B-	1d	.	1b-i	1dd
.	.	2g\	.	.
=110	=110	=110	=110	=110
1A	1c	0a	1cc	1ee
1F	0d	.	1a	1ff
1G	.	1g	1b-i	1dd
=111	=111	=111	=111	=111
0C	[0.cl	1r	0cc	0ee
.	.	1r	.	.
1C	.	1g	1r	1ee
=112	=112	=112	=112	=112
1C	0.c_	1g	0.r	1ee
0F	.	0a	.	0ff
=113	=113	=113	=113	=113
0C	0.c_	1g	1.cc	1ee
.	.	1e	.	1r
.	.	.	2b\	.
1F	.	1f	1a	1cc
=114	=114	=114	=114	=114
1C	0.c_	1e	1g	1cc
0F	.	0f	0a	1.cc
.	.	.	.	2dd\
=115	=115	=115	=115	=115
0.Cl	0.c]	0.el	0.gl	0.eel
!LO:TX:rj:i:t=fine	!	!	!	!
!!LO:LB:i:g=z
=116||	=116||	=116||	=116||	=116||
*>D	*>D	*>D	*>D	*>D
!!section: Benedictus
!!!OMD: Benedictus
*M2/1	*M2/1	*M2/1	*M2/1	*M2/1
*met(C|)	*met(C|)	*met(C|)	*met(C|)	*met(C|)
!	!	!	!LO:TX:Z=10:X=-50:t=Canon&colon; Vous jeunerez les quatre temps. [T2-->T1 canon at the upper fifth.]	!
0r	0r	1cc	0r	1cc
.	.	[1cc	.	[1ee
=117	=117	=117	=117	=117
0r	0r	2cc\]	0r	2ee\]
.	.	4b-\	.	2ff\
.	.	4a\	.	.
.	.	2b-\	.	1gg
.	.	2cc\	.	.
=118	=118	=118	=118	=118
0r	0r	2a\	0r	2.cc\
.	.	1cc	.	.
.	.	.	.	4dd\
.	.	.	.	4ee\
.	.	.	.	4ff\
.	.	4b-\	.	[2gg\
.	.	4a\	.	.
=119	=119	=119	=119	=119
0r	0r	2b-\	0r	2gg\]
.	.	2cc\	.	4ff\
.	.	.	.	4ee\
.	.	1a	.	1ff
=120	=120	=120	=120	=120
1c	1c	0g	0r	0gg
[1c	[1e	.	.	.
=121	=121	=121	=121	=121
2c\]	2e\]	0r	0r	0r
4B-\	2f\	.	.	.
4A\	.	.	.	.
2B-\	1g	.	.	.
2c\	.	.	.	.
=122	=122	=122	=122	=122
2A\	2.c\	0r	0r	0r
1c	.	.	.	.
.	4d\	.	.	.
.	4e\	.	.	.
.	4f\	.	.	.
4B-\	[2g\	.	.	.
4A\	.	.	.	.
=123	=123	=123	=123	=123
2B-\	2g\]	0r	0r	0r
2c\	4f\	.	.	.
.	4e\	.	.	.
1A	1f	.	.	.
=124	=124	=124	=124	=124
0G	0g	1g	1g	0r
.	.	[1g	[1b	.
=125	=125	=125	=125	=125
0r	0r	2g\]	2b\]	0r
.	.	4f\	2cc\	.
.	.	4e\	.	.
.	.	2f\	1dd	.
.	.	2g\	.	.
=126	=126	=126	=126	=126
0r	0r	2e\	2.g/	0r
.	.	1g	.	.
.	.	.	4a/	.
.	.	.	4b\	.
.	.	.	4cc\	.
.	.	4f\	[2dd\	.
.	.	4e\	.	.
=127	=127	=127	=127	=127
0r	0r	2f\	2dd\]	1r
.	.	2g\	4cc\	.
.	.	.	4b\	.
.	.	1e	1cc	1gg
=128	=128	=128	=128	=128
0r	1r	0d	0dd	1ff
.	1f	.	.	1dd
=129	=129	=129	=129	=129
1.c	1e	0r	0r	2ee\
.	.	.	.	2.gg\
.	[1g	.	.	.
.	.	.	.	4ff\
2B-\	.	.	.	2dd\
=130	=130	=130	=130	=130
2G\	2g\]	0r	0r	2ee\
1B-	2f\	.	.	1dd
.	2d\	.	.	.
2A\	[2f\	.	.	4cc\
.	.	.	.	4b-\
=131	=131	=131	=131	=131
2F\	4f\]	1r	0r	4a/
.	4e\	.	.	4g/
2A\	4d\	.	.	1cc
.	4c\	.	.	.
1G	1d	1g	.	.
.	.	.	.	2bni\
=132	=132	=132	=132	=132
0C	0c	2.e\	1r	2.cc\
.	.	4f\	.	4dd\
.	.	2g\	1cc	4ee\
.	.	.	.	4ff\
.	.	2c\	.	[2gg\
=133	=133	=133	=133	=133
0r	0r	1.g	1b	4gg\]
.	.	.	.	4ff\
.	.	.	.	2.dd\
.	.	.	[1dd	.
.	.	.	.	4ee\
.	.	2f\	.	[2ff\
=134	=134	=134	=134	=134
0r	0r	2d\	2dd\]	2ff\]
.	.	1f	2cc\	4ee\
.	.	.	.	4dd\
.	.	.	2a/	2cc\
.	.	2e\	[2cc\	[2ee\
=135	=135	=135	=135	=135
0r	1r	2c\	4cc\]	4ee\]
.	.	.	4b\	4dd\
.	.	2e\	4a/	1gg
.	.	.	4g/	.
.	1d	1d	1a	.
.	.	.	.	2ff#i\
=136	=136	=136	=136	=136
0r	2.e\	2r	0g	0gg
.	.	2g\	.	.
.	4f\	.	.	.
.	2g\	2.e\	.	.
.	[2c\	.	.	.
.	.	4f\	.	.
=137	=137	=137	=137	=137
0r	4c\]	2g\	0r	0r
.	4d\	.	.	.
.	4e\	2c\	.	.
.	4f\	.	.	.
.	2g\	2r	.	.
.	[2c\	2g\	.	.
=138	=138	=138	=138	=138
0r	4c\]	2a\	0r	0r
.	4B-\	.	.	.
.	2G/	2b-\	.	.
.	2A/	2.cc\	.	.
.	[2c\	.	.	.
.	.	4b-\	.	.
=139	=139	=139	=139	=139
0r	4c\]	4a\	1r	0r
.	4B-\	4g\	.	.
.	4A/	1g	.	.
.	4G/	.	.	.
.	1A	.	1a	.
.	.	2f#i\	.	.
=140	=140	=140	=140	=140
0r	0G	[0g	2.b-i\	2r
.	.	.	.	2g/
.	.	.	4cc\	.
.	.	.	2dd\	2.b-\
.	.	.	[2g/	.
.	.	.	.	4cc\
=141	=141	=141	=141	=141
0r	0r	0g]	4g/]	2dd\
.	.	.	4a/	.
.	.	.	4b-i\	2g/
.	.	.	4cc\	.
.	.	.	2dd\	2r
.	.	.	[2g/	2dd\
=142	=142	=142	=142	=142
0r	0r	1r	4g/]	2ee\
.	.	.	4f/	.
.	.	.	2d/	2ff\
.	.	2r	2e/	2.gg\
.	.	[2G/	[2g/	.
.	.	.	.	4ff\
=143	=143	=143	=143	=143
0r	0r	4G/]	4g/]	4ee\
.	.	4A/	4f/	4dd\
.	.	2B-\	4e/	1dd
.	.	.	4d/	.
.	.	1c	1e	.
.	.	.	.	2cc\
=144	=144	=144	=144	=144
2r	1r	2.G/	0d	0dd
2.G\	.	.	.	.
.	.	4A/	.	.
.	1d	2B-\	.	.
4A\	.	.	.	.
2B-\	.	2G/	.	.
=145	=145	=145	=145	=145
2c\	2.e\	2.c\	0r	0g
2.C/	.	.	.	.
.	4f\	4d\	.	.
.	2g\	4e\	.	.
4D\	.	4f\	.	.
2E\	[2c\	2g\	.	.
=146	=146	=146	=146	=146
2F\	4c\]	2.c\	0r	0r
.	4d\	.	.	.
2C/	4e\	.	.	.
.	4f\	4d\	.	.
2r	2g\	2.e\	.	.
[2C/	[2c\	.	.	.
.	.	4f\	.	.
=147	=147	=147	=147	=147
4C/]	4c\]	1g	0r	0r
4D\	4B-\	.	.	.
2E\	2G/	.	.	.
2F\	2A/	1c	.	.
4C/	[2c\	.	.	.
4D\	.	.	.	.
=148	=148	=148	=148	=148
4E\	4c\]	0r	1r	0r
4F\	4B-\	.	.	.
1G	2G/	.	.	.
.	1A	.	1a	.
2F#i\	.	.	.	.
=149	=149	=149	=149	=149
0G	[0Gl	2r	2.b\	0r
.	.	2g\	.	.
.	.	.	4cc\	.
.	.	2g\	2dd\	.
.	.	2g\	[2g/	.
=150	=150	=150	=150	=150
2r	0G_	2.g\	4g/]	1r
.	.	.	4a/	.
2G\	.	.	4b\	.
.	.	4f\	4cc\	.
2G\	.	2d\	2dd\	2r
[2E\	.	[2e\	[2g/	2gg\
=151	=151	=151	=151	=151
4E\]	0G_	4e\]	4g/]	2gg\
4F\	.	4d\	4f/	.
2G\	.	2Bni\	2d/	2gg\
2C/	.	2c\	2e/	2.gg\
[2E\	.	2G/	[2g/	.
.	.	.	.	4ff\
=152	=152	=152	=152	=152
4E\]	0G_	[0gl	4g/]	2ee\
4F\	.	.	4f/	.
2G\	.	.	2d/	2dd\
1C	.	.	1e	1cc
=153	=153	=153	=153	=153
0Gl	0G]	0g]	0dl	0bnil
!LO:TX:i:Y=40:rj:t=Osanna ut supra	!	!	!	!
=||	=||	=||	=||	=||
*-	*-	*-	*-	*-
!!!RDF**kern: l=long note in original notation
!!!RDF**kern: i=editorial accidental
!!!RDF**kern: V=start of tuplet marker
!!!RDF**kern: Z=end of tuplet marker
!!!ENC:	Chris Gage 06-04-2012
!!!END:	2012/06/05/
!!!EED:	Jesse Rodin
!!!EEV:	2012/06/07/
!!attribution-level@Jos: 1 (secure)
!!attribution-level@Rue: 4 (doubtful)
!!!ONB:	Translated from MusicXML and edited on 2012/06/07/ by Craig Sapp
!!muse2ps: T^@{OPR}^u^@{ONM}{. }@{OTL}^C^Josquin/La Rue?\n@{SCT}^i2I150v85,85,85,85,130Q8
